proprietary/assets/icons/gebouwonderdelen/nooduitgang.svg

<svg viewBox="0 0 64 64" xmlns="http://www.w3.org/2000/svg"><path d="m0 0h64v64h-64z" fill="none"/><path d="m57 14.05h-50a2 2 0 0 0 -2 2v31.37a2 2 0 0 0 2 2h50a2 2 0 0 0 2-2v-31.37a2 2 0 0 0 -2-2zm-24.49 31.44h-7.7c.17-.84.31-1.64.48-2.66s.3-1.88.39-2.92a4.28 4.28 0 0 0 -.08-1.65c-.16-.49-.63-1.1-3.28-3.63.49-1.43 1.12-3.1 1.64-4.45.33.87 1.06 2.59 1.86 3.1a8.47 8.47 0 0 0 3 .64 1.93 1.93 0 0 0 1.93-1.27 37.81 37.81 0 0 1 -3.89-1 13.47 13.47 0 0 1 -1.33-2.91c-.47-1.3-.57-2.63-3.6-3.35-1.83-.43-4.94 0-5.74.56a12.16 12.16 0 0 0 -2.42 2.89 1.87 1.87 0 0 0 .23 2.47c.37-.4 2.3-3.12 3.31-3.59a7.63 7.63 0 0 1 2.41-.24c-.82 2-1.66 4.84-1.93 5.78-.54 1.87.74 2.9 1.93 3.86 0 0 0 .09-.15.09a6.75 6.75 0 0 1 -1.71-.58c-.48.78-1.5 2.39-2 3.07a22.66 22.66 0 0 1 -3.67-1.19 2 2 0 0 0 -2.34 1.11c1.34.73 4.65 2.46 6.16 2.56.87 0 1.23-.22 2-1s2-2.34 2.7-3.26c.66.44 1.59 1.07 2.2 1.55a49.31 49.31 0 0 1 -.28 5.53 1.49 1.49 0 0 0 .06.49h-13.76v-27.49h23.58zm22.09-12.62-8.47 6.68a1.47 1.47 0 0 1 -.93.33 1.52 1.52 0 0 1 -1.32-2.26l.66-1.15.85-1.47.61-1.09h-9c-1.21 0-1.57-1-1.57-2.23s.36-2.23 1.57-2.23h9l-2.12-3.7a1.53 1.53 0 0 1 .33-1.9 1.51 1.51 0 0 1 1.92 0l8.47 6.65a1.5 1.5 0 0 1 .57 1.18 1.53 1.53 0 0 1 -.57 1.19z"/><path d="m23.69 24.89a2.08 2.08 0 0 0 2.8-1.45c.53-1.46 0-2.52-1.2-3a2.11 2.11 0 0 0 -2.82 1.56 2 2 0 0 0 1.22 2.89z"/></svg>

<svg xmlns="http://www.w3.org/2000/svg" viewBox="0 0 64 64"><defs><style>.cls-1{fill:none;}</style></defs><g id="BOX"><rect class="cls-1" width="64" height="64"/></g><g id="ICOON"><path d="M57,14.05H7a2,2,0,0,0-2,2V47.42a2,2,0,0,0,2,2H57a2,2,0,0,0,2-2V16.05A2,2,0,0,0,57,14.05ZM32.51,45.49h-7.7c.17-.84.31-1.64.48-2.66s.3-1.88.39-2.92a4.28,4.28,0,0,0-.08-1.65c-.16-.49-.63-1.1-3.28-3.63.49-1.43,1.12-3.1,1.64-4.45.33.87,1.06,2.59,1.86,3.1a8.47,8.47,0,0,0,3,.64,1.93,1.93,0,0,0,1.93-1.27,37.81,37.81,0,0,1-3.89-1,13.47,13.47,0,0,1-1.33-2.91c-.47-1.3-.57-2.63-3.6-3.35-1.83-.43-4.94,0-5.74.56a12.16,12.16,0,0,0-2.42,2.89h0A1.87,1.87,0,0,0,14,31.31c.37-.4,2.3-3.12,3.31-3.59a7.63,7.63,0,0,1,2.41-.24c-.82,2-1.66,4.84-1.93,5.78-.54,1.87.74,2.9,1.93,3.86,0,0,0,.09-.15.09a6.75,6.75,0,0,1-1.71-.58c-.48.78-1.5,2.39-2,3.07a22.66,22.66,0,0,1-3.67-1.19,2,2,0,0,0-2.34,1.11c1.34.73,4.65,2.46,6.16,2.56.87,0,1.23-.22,2-1s2-2.34,2.7-3.26c.66.44,1.59,1.07,2.2,1.55A49.31,49.31,0,0,1,22.63,45a1.49,1.49,0,0,0,.06.49H8.93V18H32.51ZM54.6,32.87l-8.47,6.68a1.47,1.47,0,0,1-.93.33,1.52,1.52,0,0,1-1.32-2.26l.66-1.15L45.39,35,46,33.91H37c-1.21,0-1.57-1-1.57-2.23s.36-2.23,1.57-2.23h9l-2.12-3.7a1.53,1.53,0,0,1,.33-1.9,1.51,1.51,0,0,1,1.92,0L54.6,30.5a1.5,1.5,0,0,1,.57,1.18A1.53,1.53,0,0,1,54.6,32.87Z"/><path d="M23.69,24.89a2.08,2.08,0,0,0,2.8-1.45c.53-1.46,0-2.52-1.2-3A2.11,2.11,0,0,0,22.47,22,2,2,0,0,0,23.69,24.89Z"/></g></svg>
